public/images/mysql.svg

<svg width="56" height="56" viewBox="0 0 56 56" fill="none" xmlns="http://www.w3.org/2000/svg">
<g id="Group 25">
<path id="Vector" d="M50.9284 43.1256C47.9513 43.0499 45.6439 43.3536 43.7088 44.1887C43.1505 44.4162 42.2573 44.4165 42.1828 45.1378C42.4806 45.4415 42.5178 45.9351 42.7783 46.3525C43.2254 47.1116 44.0063 48.1367 44.7135 48.6684C45.4949 49.2757 46.2767 49.8829 47.095 50.4144C48.5466 51.3256 50.1842 51.8569 51.5983 52.7681C52.4173 53.2992 53.2355 53.983 54.0543 54.5523C54.4637 54.8556 54.724 55.3496 55.2453 55.5392V55.4255C54.9846 55.0836 54.9101 54.5903 54.6498 54.2106C54.278 53.831 53.9054 53.4893 53.5332 53.1096C52.4541 51.6294 51.1145 50.3385 49.6631 49.2757C48.4724 48.4404 45.867 47.3017 45.3834 45.8969C45.3834 45.8969 45.346 45.8592 45.309 45.8212C46.1276 45.7453 47.095 45.4415 47.8769 45.2137C49.1421 44.8718 50.2956 44.948 51.5983 44.6063C52.1936 44.4544 52.7891 44.2646 53.3844 44.0748V43.7333C52.7149 43.0499 52.231 42.1389 51.5239 41.4935C49.6259 39.8228 47.5417 38.1907 45.3834 36.8241C44.2296 36.0648 42.7409 35.5712 41.5129 34.926C41.0667 34.698 40.3221 34.5843 40.0618 34.2047C39.3916 33.3696 39.0194 32.2688 38.5358 31.2817C37.4569 29.1936 36.4146 26.8781 35.4841 24.6765C34.8146 23.1958 34.4052 21.7152 33.5864 20.3488C29.7533 13.8952 25.5852 9.98516 19.1844 6.15081C17.8073 5.35374 16.1699 5.01204 14.4209 4.59464C13.4908 4.55645 12.5602 4.48074 11.6299 4.44255C11.0344 4.17679 10.4389 3.45565 9.91784 3.11396C7.79701 1.74718 2.32608 -1.21352 0.763105 2.69655C-0.2418 5.16391 2.25185 7.5933 3.10746 8.8464C3.7406 9.7194 4.55898 10.7063 5.00561 11.6934C5.26614 12.3384 5.34036 13.0222 5.60089 13.7054C6.19661 15.3753 6.75446 17.2358 7.53627 18.7924C7.94567 19.5895 8.39208 20.4245 8.91315 21.1459C9.2109 21.5633 9.73174 21.7533 9.84361 22.4365C9.32277 23.1958 9.28533 24.3348 8.98737 25.2837C7.64771 29.5735 8.16899 34.8881 10.0667 38.0388C10.662 38.9875 12.0763 41.0761 13.9742 40.2786C15.6491 39.5954 15.2769 37.4316 15.7603 35.5335C15.8724 35.0775 15.798 34.7742 16.0211 34.4704V34.5466C16.5421 35.6092 17.063 36.6345 17.5468 37.6973C18.7006 39.5572 20.71 41.4935 22.3846 42.7844C23.2781 43.4673 23.985 44.6443 25.1016 45.0619V44.9478H25.0269C24.8036 44.6061 24.4686 44.4544 24.1711 44.1884C23.5014 43.5055 22.7568 42.6702 22.2359 41.9109C20.6732 39.7848 19.2959 37.4314 18.0679 35.0017C17.4726 33.8252 16.9513 32.5344 16.4677 31.3577C16.2442 30.9016 16.2442 30.2187 15.8722 29.9911C15.3139 30.8261 14.4953 31.5475 14.0859 32.5724C13.3792 34.2047 13.3045 36.2167 13.044 38.3044C12.8951 38.3428 12.9693 38.3044 12.8949 38.3807C11.7043 38.0766 11.2949 36.8241 10.8481 35.7611C9.73153 33.0659 9.54544 28.7382 10.5133 25.6254C10.7739 24.8282 11.8904 22.3228 11.4438 21.5635C11.2205 20.8421 10.4759 20.4245 10.0667 19.8553C9.58308 19.1339 9.06181 18.2231 8.72705 17.4256C7.8338 15.2998 7.38718 12.9461 6.41971 10.8202C5.97308 9.83308 5.19192 8.80843 4.55899 7.89725C3.85204 6.87238 3.07045 6.15081 2.51217 4.93611C2.32629 4.5187 2.06555 3.83532 2.3633 3.37972C2.43773 3.07599 2.58639 2.96231 2.88436 2.88638C3.3682 2.46854 4.74529 3.00006 5.22871 3.22786C6.6058 3.79691 7.75937 4.32887 8.91315 5.12594C9.43399 5.5056 9.99228 6.22696 10.662 6.41679H11.4436C12.6346 6.68233 13.974 6.49272 15.0906 6.8342C17.0632 7.4794 18.8493 8.42855 20.4497 9.45364C25.3249 12.6044 29.3436 17.0839 32.0606 22.4365C32.5072 23.3093 32.6931 24.107 33.1025 25.0178C33.8843 26.8781 34.8518 28.7762 35.633 30.5983C36.4146 32.3823 37.1587 34.2047 38.2753 35.6854C38.8336 36.4822 41.0663 36.9 42.0712 37.3177C42.8155 37.6592 43.9693 37.9631 44.639 38.3805C45.9043 39.1774 47.1695 40.089 48.3605 40.9618C48.956 41.4174 50.8165 42.3665 50.9284 43.1256V43.1256Z" fill="#00546B"/>
<path id="Vector_2" d="M12.9691 10.1366C12.3366 10.1366 11.8902 10.213 11.4436 10.3266V10.4026H11.518C11.816 11.01 12.3366 11.4277 12.7086 11.959C13.0066 12.5662 13.2669 13.1739 13.5648 13.7813C13.6018 13.7432 13.6391 13.7054 13.6391 13.7054C14.1603 13.3255 14.4207 12.7183 14.4207 11.8071C14.1973 11.5416 14.1601 11.2758 13.974 11.01C13.7509 10.6302 13.2669 10.4405 12.9691 10.1366V10.1366Z" fill="#00546B"/>
</g>
</svg>

<svg xmlns="http://www.w3.org/2000/svg" width="56" height="56" fill="none"><g fill="#00546B"><path d="M50.928 43.126c-2.977-.076-5.284.228-7.22 1.063-.557.227-1.45.227-1.525.949.298.303.335.797.595 1.215.447.759 1.228 1.784 1.936 2.315.78.608 1.563 1.215 2.381 1.746 1.452.912 3.09 1.443 4.503 2.354.82.531 1.638 1.215 2.456 1.784.41.304.67.798 1.191.987v-.114c-.26-.341-.335-.835-.595-1.214-.372-.38-.745-.722-1.117-1.101-1.079-1.48-2.419-2.771-3.87-3.834-1.19-.836-3.796-1.974-4.28-3.38l-.074-.075c.819-.076 1.786-.38 2.568-.607 1.265-.342 2.419-.266 3.721-.608.596-.152 1.191-.341 1.786-.531v-.342c-.67-.683-1.153-1.594-1.86-2.24-1.898-1.67-3.982-3.302-6.14-4.669-1.154-.76-2.643-1.253-3.871-1.898-.446-.228-1.19-.342-1.451-.721-.67-.835-1.043-1.936-1.526-2.923-1.08-2.088-2.121-4.404-3.052-6.605-.67-1.481-1.079-2.962-1.898-4.328-3.833-6.454-8-10.364-14.402-14.198-1.377-.797-3.014-1.139-4.763-1.556-.93-.039-1.86-.114-2.791-.152-.596-.266-1.191-.987-1.712-1.329C7.797 1.747 2.326-1.214.763 2.697c-1.005 2.467 1.489 4.896 2.344 6.15.634.872 1.452 1.86 1.899 2.846.26.645.334 1.33.595 2.012.596 1.67 1.153 3.53 1.935 5.087.41.797.856 1.632 1.377 2.354.298.417.819.607.93 1.29-.52.76-.558 1.899-.856 2.848-1.34 4.29-.818 9.604 1.08 12.755.595.948 2.01 3.037 3.907 2.24 1.675-.684 1.303-2.847 1.786-4.746.112-.456.038-.759.261-1.063v.077c.521 1.062 1.042 2.088 1.526 3.15 1.154 1.86 3.163 3.796 4.838 5.087.893.683 1.6 1.86 2.717 2.278v-.114h-.075c-.223-.342-.558-.494-.856-.76-.67-.683-1.414-1.518-1.935-2.277-1.563-2.126-2.94-4.48-4.168-6.91-.595-1.176-1.117-2.467-1.6-3.643-.224-.456-.224-1.14-.596-1.367-.558.835-1.377 1.556-1.786 2.581-.707 1.633-.781 3.645-1.042 5.732-.149.039-.075 0-.15.077-1.19-.304-1.6-1.557-2.046-2.62-1.116-2.695-1.303-7.023-.335-10.136.26-.797 1.377-3.302.93-4.061-.223-.722-.967-1.14-1.376-1.709-.484-.721-1.005-1.632-1.34-2.43-.893-2.125-1.34-4.479-2.307-6.605-.447-.987-1.228-2.012-1.861-2.923-.707-1.025-1.489-1.746-2.047-2.96-.186-.418-.446-1.102-.149-1.557.075-.304.223-.418.521-.494.484-.417 1.861.114 2.345.342 1.377.569 2.53 1.1 3.684 1.898.521.38 1.08 1.101 1.749 1.29h.782c1.19.266 2.53.077 3.647.418 1.972.645 3.758 1.595 5.359 2.62 4.875 3.15 8.894 7.63 11.61 12.982.447.873.633 1.671 1.042 2.582.782 1.86 1.75 3.758 2.531 5.58.782 1.784 1.526 3.607 2.642 5.087.559.797 2.791 1.215 3.796 1.633.745.341 1.898.645 2.568 1.063 1.265.796 2.53 1.708 3.721 2.58.596.456 2.456 1.406 2.568 2.165Z"/><path d="M12.97 10.137a5.79 5.79 0 0 0-1.526.19v.076h.074c.298.607.819 1.025 1.19 1.556.299.607.559 1.215.857 1.822l.074-.076c.521-.38.782-.987.782-1.898-.224-.265-.26-.531-.447-.797-.223-.38-.707-.57-1.005-.873Z"/></g></svg>
